images/3234740.svg

<?xml version="1.0" encoding="UTF-8"?>
<svg xmlns="http://www.w3.org/2000/svg" xmlns:xlink="http://www.w3.org/1999/xlink" width="300pt" height="300pt" viewBox="0 0 300 300" version="1.1">
<defs>
<g>
<symbol overflow="visible" id="glyph0-0">
<path style="stroke:none;" d="M 0.546875 1.9375 L 0.546875 -7.75 L 6.046875 -7.75 L 6.046875 1.9375 Z M 1.171875 1.328125 L 5.4375 1.328125 L 5.4375 -7.140625 L 1.171875 -7.140625 Z M 1.171875 1.328125 "/>
</symbol>
<symbol overflow="visible" id="glyph0-1">
<path style="stroke:none;" d="M 4.328125 -7.28125 C 3.546875 -7.28125 2.921875 -6.984375 2.453125 -6.390625 C 1.992188 -5.804688 1.765625 -5.007812 1.765625 -4 C 1.765625 -2.988281 1.992188 -2.1875 2.453125 -1.59375 C 2.921875 -1.007812 3.546875 -0.71875 4.328125 -0.71875 C 5.117188 -0.71875 5.742188 -1.007812 6.203125 -1.59375 C 6.660156 -2.1875 6.890625 -2.988281 6.890625 -4 C 6.890625 -5.007812 6.660156 -5.804688 6.203125 -6.390625 C 5.742188 -6.984375 5.117188 -7.28125 4.328125 -7.28125 Z M 4.328125 -8.171875 C 5.453125 -8.171875 6.351562 -7.789062 7.03125 -7.03125 C 7.707031 -6.28125 8.046875 -5.269531 8.046875 -4 C 8.046875 -2.738281 7.707031 -1.726562 7.03125 -0.96875 C 6.351562 -0.21875 5.453125 0.15625 4.328125 0.15625 C 3.203125 0.15625 2.300781 -0.21875 1.625 -0.96875 C 0.957031 -1.71875 0.625 -2.726562 0.625 -4 C 0.625 -5.269531 0.957031 -6.28125 1.625 -7.03125 C 2.300781 -7.789062 3.203125 -8.171875 4.328125 -8.171875 Z M 4.328125 -8.171875 "/>
</symbol>
<symbol overflow="visible" id="glyph0-2">
<path style="stroke:none;" d="M 1.078125 -8.015625 L 2.546875 -8.015625 L 6.09375 -1.3125 L 6.09375 -8.015625 L 7.15625 -8.015625 L 7.15625 0 L 5.6875 0 L 2.125 -6.703125 L 2.125 0 L 1.078125 0 Z M 1.078125 -8.015625 "/>
</symbol>
<symbol overflow="visible" id="glyph0-3">
<path style="stroke:none;" d="M 1.078125 -8.015625 L 5.6875 -8.015625 L 5.6875 -7.109375 L 2.171875 -7.109375 L 2.171875 -4.75 L 5.34375 -4.75 L 5.34375 -3.828125 L 2.171875 -3.828125 L 2.171875 0 L 1.078125 0 Z M 1.078125 -8.015625 "/>
</symbol>
</g>
</defs>
<g id="surface44269">
<rect x="0" y="0" width="300" height="300" style="fill:rgb(100%,100%,100%);fill-opacity:1;stroke:none;"/>
<path style="fill:none;stroke-width:1.2;stroke-linecap:butt;stroke-linejoin:miter;stroke:rgb(0%,0%,0%);stroke-opacity:1;stroke-miterlimit:10;" d="M 264.75 217.003906 L 258.664062 205.710938 "/>
<path style="fill:none;stroke-width:1.2;stroke-linecap:butt;stroke-linejoin:miter;stroke:rgb(100%,0%,0%);stroke-opacity:1;stroke-miterlimit:10;" d="M 258.664062 205.710938 L 252.578125 194.417969 "/>
<path style="fill:none;stroke-width:1.2;stroke-linecap:butt;stroke-linejoin:miter;stroke:rgb(100%,0%,0%);stroke-opacity:1;stroke-miterlimit:10;" d="M 252.578125 194.417969 L 239.757812 194.042969 "/>
<path style="fill:none;stroke-width:1.2;stroke-linecap:butt;stroke-linejoin:miter;stroke:rgb(0%,0%,0%);stroke-opacity:1;stroke-miterlimit:10;" d="M 239.757812 194.042969 L 226.933594 193.664062 "/>
<path style=" stroke:none;fill-rule:nonzero;fill:rgb(100%,100%,100%);fill-opacity:1;" d="M 248.578125 187.917969 L 257.578125 187.917969 L 257.578125 200.917969 L 248.578125 200.917969 Z M 248.578125 187.917969 "/>
<g style="fill:rgb(100%,0%,0%);fill-opacity:1;">
  <use xlink:href="#glyph0-1" x="248.578125" y="197.819336"/>
</g>
<path style="fill:none;stroke-width:1.2;stroke-linecap:butt;stroke-linejoin:miter;stroke:rgb(0%,0%,0%);stroke-opacity:1;stroke-miterlimit:10;" d="M 226.933594 193.664062 L 220.199219 204.582031 "/>
<path style="fill:none;stroke-width:1.2;stroke-linecap:butt;stroke-linejoin:miter;stroke:rgb(0%,0%,100%);stroke-opacity:1;stroke-miterlimit:10;" d="M 220.199219 204.582031 L 213.460938 215.5 "/>
<path style="fill:none;stroke-width:1.2;stroke-linecap:butt;stroke-linejoin:miter;stroke:rgb(0%,0%,0%);stroke-opacity:1;stroke-miterlimit:10;" d="M 220.449219 192.679688 L 215.058594 201.410156 "/>
<path style="fill:none;stroke-width:1.2;stroke-linecap:butt;stroke-linejoin:miter;stroke:rgb(0%,0%,100%);stroke-opacity:1;stroke-miterlimit:10;" d="M 215.058594 201.410156 L 209.671875 210.144531 "/>
<path style="fill:none;stroke-width:1.2;stroke-linecap:butt;stroke-linejoin:miter;stroke:rgb(0%,0%,100%);stroke-opacity:1;stroke-miterlimit:10;" d="M 214.765625 171.082031 L 220.847656 182.371094 "/>
<path style="fill:none;stroke-width:1.2;stroke-linecap:butt;stroke-linejoin:miter;stroke:rgb(0%,0%,0%);stroke-opacity:1;stroke-miterlimit:10;" d="M 220.847656 182.371094 L 226.933594 193.664062 "/>
<path style="fill:none;stroke-width:1.2;stroke-linecap:butt;stroke-linejoin:miter;stroke:rgb(0%,0%,100%);stroke-opacity:1;stroke-miterlimit:10;" d="M 213.460938 215.5 L 200.636719 215.121094 "/>
<path style="fill:none;stroke-width:1.2;stroke-linecap:butt;stroke-linejoin:miter;stroke:rgb(0%,0%,0%);stroke-opacity:1;stroke-miterlimit:10;" d="M 200.636719 215.121094 L 187.816406 214.746094 "/>
<path style=" stroke:none;fill-rule:nonzero;fill:rgb(100%,100%,100%);fill-opacity:1;" d="M 209.460938 209 L 217.460938 209 L 217.460938 222 L 209.460938 222 Z M 209.460938 209 "/>
<g style="fill:rgb(0%,0%,100%);fill-opacity:1;">
  <use xlink:href="#glyph0-2" x="209.460938" y="218.901367"/>
</g>
<path style="fill:none;stroke-width:1.2;stroke-linecap:butt;stroke-linejoin:miter;stroke:rgb(0%,0%,0%);stroke-opacity:1;stroke-miterlimit:10;" d="M 187.816406 214.746094 L 175.644531 192.160156 "/>
<path style="fill:none;stroke-width:1.2;stroke-linecap:butt;stroke-linejoin:miter;stroke:rgb(0%,0%,0%);stroke-opacity:1;stroke-miterlimit:10;" d="M 191.914062 209.625 L 182.175781 191.554688 "/>
<path style="fill:none;stroke-width:1.2;stroke-linecap:butt;stroke-linejoin:miter;stroke:rgb(0%,0%,0%);stroke-opacity:1;stroke-miterlimit:10;" d="M 175.644531 192.160156 L 189.117188 170.328125 "/>
<path style="fill:none;stroke-width:1.2;stroke-linecap:butt;stroke-linejoin:miter;stroke:rgb(0%,0%,100%);stroke-opacity:1;stroke-miterlimit:10;" d="M 150 191.40625 L 162.824219 191.785156 "/>
<path style="fill:none;stroke-width:1.2;stroke-linecap:butt;stroke-linejoin:miter;stroke:rgb(0%,0%,0%);stroke-opacity:1;stroke-miterlimit:10;" d="M 162.824219 191.785156 L 175.644531 192.160156 "/>
<path style="fill:none;stroke-width:1.2;stroke-linecap:butt;stroke-linejoin:miter;stroke:rgb(0%,0%,0%);stroke-opacity:1;stroke-miterlimit:10;" d="M 189.117188 170.328125 L 201.941406 170.703125 "/>
<path style="fill:none;stroke-width:1.2;stroke-linecap:butt;stroke-linejoin:miter;stroke:rgb(0%,0%,100%);stroke-opacity:1;stroke-miterlimit:10;" d="M 201.941406 170.703125 L 214.765625 171.082031 "/>
<path style="fill:none;stroke-width:1.2;stroke-linecap:butt;stroke-linejoin:miter;stroke:rgb(0%,0%,0%);stroke-opacity:1;stroke-miterlimit:10;" d="M 191.507812 176.4375 L 201.765625 176.738281 "/>
<path style="fill:none;stroke-width:1.2;stroke-linecap:butt;stroke-linejoin:miter;stroke:rgb(0%,0%,100%);stroke-opacity:1;stroke-miterlimit:10;" d="M 201.765625 176.738281 L 212.023438 177.039062 "/>
<path style="fill:none;stroke-width:1.2;stroke-linecap:butt;stroke-linejoin:miter;stroke:rgb(0%,0%,0%);stroke-opacity:1;stroke-miterlimit:10;" d="M 189.117188 170.328125 L 183.035156 159.035156 "/>
<path style="fill:none;stroke-width:1.2;stroke-linecap:butt;stroke-linejoin:miter;stroke:rgb(0%,0%,100%);stroke-opacity:1;stroke-miterlimit:10;" d="M 183.035156 159.035156 L 176.949219 147.742188 "/>
<path style=" stroke:none;fill-rule:nonzero;fill:rgb(100%,100%,100%);fill-opacity:1;" d="M 210.765625 164.582031 L 218.765625 164.582031 L 218.765625 177.582031 L 210.765625 177.582031 Z M 210.765625 164.582031 "/>
<g style="fill:rgb(0%,0%,100%);fill-opacity:1;">
  <use xlink:href="#glyph0-2" x="210.765625" y="174.483398"/>
</g>
<path style="fill:none;stroke-width:1.2;stroke-linecap:butt;stroke-linejoin:miter;stroke:rgb(0%,0%,100%);stroke-opacity:1;stroke-miterlimit:10;" d="M 176.949219 147.742188 L 164.125 147.367188 "/>
<path style="fill:none;stroke-width:1.2;stroke-linecap:butt;stroke-linejoin:miter;stroke:rgb(0%,0%,0%);stroke-opacity:1;stroke-miterlimit:10;" d="M 164.125 147.367188 L 151.304688 146.988281 "/>
<path style="fill:none;stroke-width:1.2;stroke-linecap:butt;stroke-linejoin:miter;stroke:rgb(0%,0%,100%);stroke-opacity:1;stroke-miterlimit:10;" d="M 176.949219 147.742188 L 183.683594 136.824219 "/>
<path style="fill:none;stroke-width:1.2;stroke-linecap:butt;stroke-linejoin:miter;stroke:rgb(0%,0%,0%);stroke-opacity:1;stroke-miterlimit:10;" d="M 183.683594 136.824219 L 190.421875 125.910156 "/>
<path style=" stroke:none;fill-rule:nonzero;fill:rgb(100%,100%,100%);fill-opacity:1;" d="M 172.949219 141.242188 L 180.949219 141.242188 L 180.949219 154.242188 L 172.949219 154.242188 Z M 172.949219 141.242188 "/>
<g style="fill:rgb(0%,0%,100%);fill-opacity:1;">
  <use xlink:href="#glyph0-2" x="172.949219" y="151.143555"/>
</g>
<path style="fill:none;stroke-width:1.2;stroke-linecap:butt;stroke-linejoin:miter;stroke:rgb(0%,0%,0%);stroke-opacity:1;stroke-miterlimit:10;" d="M 153.960938 145.558594 L 147.875 134.265625 "/>
<path style="fill:none;stroke-width:1.2;stroke-linecap:butt;stroke-linejoin:miter;stroke:rgb(100%,0%,0%);stroke-opacity:1;stroke-miterlimit:10;" d="M 147.875 134.265625 L 141.789062 122.972656 "/>
<path style="fill:none;stroke-width:1.2;stroke-linecap:butt;stroke-linejoin:miter;stroke:rgb(0%,0%,0%);stroke-opacity:1;stroke-miterlimit:10;" d="M 148.644531 148.421875 L 142.5625 137.128906 "/>
<path style="fill:none;stroke-width:1.2;stroke-linecap:butt;stroke-linejoin:miter;stroke:rgb(100%,0%,0%);stroke-opacity:1;stroke-miterlimit:10;" d="M 142.5625 137.128906 L 136.476562 125.835938 "/>
<path style="fill:none;stroke-width:1.2;stroke-linecap:butt;stroke-linejoin:miter;stroke:rgb(0%,0%,0%);stroke-opacity:1;stroke-miterlimit:10;" d="M 151.304688 146.988281 L 137.828125 168.824219 "/>
<path style=" stroke:none;fill-rule:nonzero;fill:rgb(100%,100%,100%);fill-opacity:1;" d="M 130.132812 117.90625 L 139.132812 117.90625 L 139.132812 130.90625 L 130.132812 130.90625 Z M 130.132812 117.90625 "/>
<g style="fill:rgb(100%,0%,0%);fill-opacity:1;">
  <use xlink:href="#glyph0-1" x="130.132812" y="127.807617"/>
</g>
<path style="fill:none;stroke-width:1.2;stroke-linecap:butt;stroke-linejoin:miter;stroke:rgb(0%,0%,0%);stroke-opacity:1;stroke-miterlimit:10;" d="M 137.828125 168.824219 L 143.914062 180.113281 "/>
<path style="fill:none;stroke-width:1.2;stroke-linecap:butt;stroke-linejoin:miter;stroke:rgb(0%,0%,100%);stroke-opacity:1;stroke-miterlimit:10;" d="M 143.914062 180.113281 L 150 191.40625 "/>
<path style="fill:none;stroke-width:1.2;stroke-linecap:butt;stroke-linejoin:miter;stroke:rgb(0%,0%,0%);stroke-opacity:1;stroke-miterlimit:10;" d="M 144.359375 168.21875 L 149.230469 177.25 "/>
<path style="fill:none;stroke-width:1.2;stroke-linecap:butt;stroke-linejoin:miter;stroke:rgb(0%,0%,100%);stroke-opacity:1;stroke-miterlimit:10;" d="M 149.230469 177.25 L 154.097656 186.285156 "/>
<path style="fill:none;stroke-width:1.2;stroke-linecap:butt;stroke-linejoin:miter;stroke:rgb(0%,0%,0%);stroke-opacity:1;stroke-miterlimit:10;" d="M 137.828125 168.824219 L 112.183594 168.070312 "/>
<path style=" stroke:none;fill-rule:nonzero;fill:rgb(100%,100%,100%);fill-opacity:1;" d="M 146 184.90625 L 154 184.90625 L 154 197.90625 L 146 197.90625 Z M 146 184.90625 "/>
<g style="fill:rgb(0%,0%,100%);fill-opacity:1;">
  <use xlink:href="#glyph0-2" x="146" y="194.807617"/>
</g>
<path style="fill:none;stroke-width:1.2;stroke-linecap:butt;stroke-linejoin:miter;stroke:rgb(0%,0%,0%);stroke-opacity:1;stroke-miterlimit:10;" d="M 112.183594 168.070312 L 100.015625 145.484375 "/>
<path style="fill:none;stroke-width:1.2;stroke-linecap:butt;stroke-linejoin:miter;stroke:rgb(0%,0%,0%);stroke-opacity:1;stroke-miterlimit:10;" d="M 105.652344 168.675781 L 95.917969 150.605469 "/>
<path style="fill:none;stroke-width:1.2;stroke-linecap:butt;stroke-linejoin:miter;stroke:rgb(0%,0%,0%);stroke-opacity:1;stroke-miterlimit:10;" d="M 98.710938 189.902344 L 112.183594 168.070312 "/>
<path style="fill:none;stroke-width:1.2;stroke-linecap:butt;stroke-linejoin:miter;stroke:rgb(0%,0%,0%);stroke-opacity:1;stroke-miterlimit:10;" d="M 100.015625 145.484375 L 74.367188 144.730469 "/>
<path style="fill:none;stroke-width:1.2;stroke-linecap:butt;stroke-linejoin:miter;stroke:rgb(0%,0%,0%);stroke-opacity:1;stroke-miterlimit:10;" d="M 74.367188 144.730469 L 60.894531 166.566406 "/>
<path style="fill:none;stroke-width:1.2;stroke-linecap:butt;stroke-linejoin:miter;stroke:rgb(0%,0%,0%);stroke-opacity:1;stroke-miterlimit:10;" d="M 78.160156 150.085938 L 67.378906 167.550781 "/>
<path style="fill:none;stroke-width:1.2;stroke-linecap:butt;stroke-linejoin:miter;stroke:rgb(0%,0%,0%);stroke-opacity:1;stroke-miterlimit:10;" d="M 60.894531 166.566406 L 73.066406 189.148438 "/>
<path style="fill:none;stroke-width:1.2;stroke-linecap:butt;stroke-linejoin:miter;stroke:rgb(0%,0%,0%);stroke-opacity:1;stroke-miterlimit:10;" d="M 60.894531 166.566406 L 48.074219 166.1875 "/>
<path style="fill:none;stroke-width:1.2;stroke-linecap:butt;stroke-linejoin:miter;stroke:rgb(20%,80%,80%);stroke-opacity:1;stroke-miterlimit:10;" d="M 48.074219 166.1875 L 35.25 165.8125 "/>
<path style="fill:none;stroke-width:1.2;stroke-linecap:butt;stroke-linejoin:miter;stroke:rgb(0%,0%,0%);stroke-opacity:1;stroke-miterlimit:10;" d="M 73.066406 189.148438 L 98.710938 189.902344 "/>
<path style="fill:none;stroke-width:1.2;stroke-linecap:butt;stroke-linejoin:miter;stroke:rgb(0%,0%,0%);stroke-opacity:1;stroke-miterlimit:10;" d="M 75.808594 183.191406 L 96.324219 183.792969 "/>
<path style=" stroke:none;fill-rule:nonzero;fill:rgb(100%,100%,100%);fill-opacity:1;" d="M 28.25 159.3125 L 35.25 159.3125 L 35.25 172.3125 L 28.25 172.3125 Z M 28.25 159.3125 "/>
<g style="fill:rgb(20%,80%,80%);fill-opacity:1;">
  <use xlink:href="#glyph0-3" x="28.25" y="169.213867"/>
</g>
<path style="fill:none;stroke-width:1.2;stroke-linecap:butt;stroke-linejoin:miter;stroke:rgb(0%,0%,0%);stroke-opacity:1;stroke-miterlimit:10;" d="M 190.421875 125.910156 L 216.066406 126.660156 "/>
<path style="fill:none;stroke-width:1.2;stroke-linecap:butt;stroke-linejoin:miter;stroke:rgb(0%,0%,0%);stroke-opacity:1;stroke-miterlimit:10;" d="M 216.066406 126.660156 L 229.542969 104.828125 "/>
<path style="fill:none;stroke-width:1.2;stroke-linecap:butt;stroke-linejoin:miter;stroke:rgb(0%,0%,0%);stroke-opacity:1;stroke-miterlimit:10;" d="M 229.542969 104.828125 L 236.277344 93.914062 "/>
<path style="fill:none;stroke-width:1.2;stroke-linecap:butt;stroke-linejoin:miter;stroke:rgb(0%,0%,100%);stroke-opacity:1;stroke-miterlimit:10;" d="M 236.277344 93.914062 L 243.015625 82.996094 "/>
<path style="fill:none;stroke-width:1.2;stroke-linecap:butt;stroke-linejoin:miter;stroke:rgb(0%,0%,0%);stroke-opacity:1;stroke-miterlimit:10;" d="M 236.027344 105.816406 L 241.414062 97.082031 "/>
<path style="fill:none;stroke-width:1.2;stroke-linecap:butt;stroke-linejoin:miter;stroke:rgb(0%,0%,100%);stroke-opacity:1;stroke-miterlimit:10;" d="M 241.414062 97.082031 L 246.804688 88.351562 "/>
<path style="fill:none;stroke-width:1.2;stroke-linecap:butt;stroke-linejoin:miter;stroke:rgb(0%,0%,0%);stroke-opacity:1;stroke-miterlimit:10;" d="M 225.75 99.476562 L 231.140625 90.742188 "/>
<path style="fill:none;stroke-width:1.2;stroke-linecap:butt;stroke-linejoin:miter;stroke:rgb(0%,0%,100%);stroke-opacity:1;stroke-miterlimit:10;" d="M 231.140625 90.742188 L 236.53125 82.007812 "/>
<path style=" stroke:none;fill-rule:nonzero;fill:rgb(100%,100%,100%);fill-opacity:1;" d="M 239.015625 76.496094 L 247.015625 76.496094 L 247.015625 89.496094 L 239.015625 89.496094 Z M 239.015625 76.496094 "/>
<g style="fill:rgb(0%,0%,100%);fill-opacity:1;">
  <use xlink:href="#glyph0-2" x="239.015625" y="86.397461"/>
</g>
</g>
</svg>

<svg xmlns="http://www.w3.org/2000/svg" xmlns:xlink="http://www.w3.org/1999/xlink" width="300pt" height="300pt" viewBox="0 0 300 300"><defs><symbol overflow="visible"><path d="M.547 1.938V-7.75h5.5v9.688zm.625-.61h4.266v-8.47H1.171zm0 0"/></symbol><symbol overflow="visible" id="a"><path d="M4.328-7.28c-.78 0-1.406.296-1.875.89-.46.585-.687 1.382-.687 2.39 0 1.012.226 1.813.687 2.406.47.586 1.094.875 1.875.875.79 0 1.414-.288 1.875-.874.457-.593.688-1.394.688-2.406 0-1.008-.23-1.805-.687-2.39-.46-.594-1.086-.89-1.875-.89zm0-.892c1.125 0 2.024.383 2.703 1.14C7.708-6.28 8.048-5.27 8.048-4c0 1.262-.34 2.273-1.016 3.03C6.353-.22 5.454.157 4.33.157S2.3-.22 1.625-.97c-.668-.75-1-1.757-1-3.03 0-1.27.332-2.28 1-3.03.676-.76 1.578-1.142 2.703-1.142zm0 0"/></symbol><symbol overflow="visible" id="b"><path d="M1.078-8.016h1.47l3.546 6.704v-6.704h1.062V0H5.688L2.124-6.703V0H1.078zm0 0"/></symbol><symbol overflow="visible" id="c"><path d="M1.078-8.016h4.61v.907H2.171v2.36h3.172v.922H2.172V0H1.078zm0 0"/></symbol></defs><g><path fill="#fff" d="M0 0h300v300H0z"/><path d="M264.75 217.004l-6.086-11.293" stroke-width="1.2" stroke="#000" stroke-miterlimit="10" fill="none"/><path d="M258.664 205.71l-6.086-11.292M252.578 194.418l-12.82-.375" stroke-width="1.2" stroke="#f00" stroke-miterlimit="10" fill="none"/><path d="M239.758 194.043l-12.824-.38" stroke-width="1.2" stroke="#000" stroke-miterlimit="10" fill="none"/><path d="M248.578 187.918h9v13h-9zm0 0" fill="#fff"/><use xlink:href="#a" x="248.578" y="197.819" fill="#f00"/><path d="M226.934 193.664l-6.735 10.918" stroke-width="1.2" stroke="#000" stroke-miterlimit="10" fill="none"/><path d="M220.2 204.582l-6.74 10.918" stroke-width="1.2" stroke="#00f" stroke-miterlimit="10" fill="none"/><path d="M220.45 192.68l-5.39 8.73" stroke-width="1.2" stroke="#000" stroke-miterlimit="10" fill="none"/><path d="M215.06 201.41l-5.388 8.735M214.766 171.082l6.082 11.29" stroke-width="1.2" stroke="#00f" stroke-miterlimit="10" fill="none"/><path d="M220.848 182.37l6.086 11.294" stroke-width="1.2" stroke="#000" stroke-miterlimit="10" fill="none"/><path d="M213.46 215.5l-12.823-.38" stroke-width="1.2" stroke="#00f" stroke-miterlimit="10" fill="none"/><path d="M200.637 215.12l-12.82-.374" stroke-width="1.2" stroke="#000" stroke-miterlimit="10" fill="none"/><path d="M209.46 209h8v13h-8zm0 0" fill="#fff"/><use xlink:href="#b" x="209.461" y="218.901" fill="#00f"/><path d="M187.816 214.746l-12.17-22.586M191.914 209.625l-9.738-18.07M175.645 192.16l13.472-21.832" stroke-width="1.2" stroke="#000" stroke-miterlimit="10" fill="none"/><path d="M150 191.406l12.824.38" stroke-width="1.2" stroke="#00f" stroke-miterlimit="10" fill="none"/><path d="M162.824 191.785l12.82.375M189.117 170.328l12.824.375" stroke-width="1.2" stroke="#000" stroke-miterlimit="10" fill="none"/><path d="M201.94 170.703l12.826.38" stroke-width="1.2" stroke="#00f" stroke-miterlimit="10" fill="none"/><path d="M191.508 176.438l10.258.3" stroke-width="1.2" stroke="#000" stroke-miterlimit="10" fill="none"/><path d="M201.766 176.738l10.257.3" stroke-width="1.2" stroke="#00f" stroke-miterlimit="10" fill="none"/><path d="M189.117 170.328l-6.082-11.293" stroke-width="1.2" stroke="#000" stroke-miterlimit="10" fill="none"/><path d="M183.035 159.035l-6.086-11.293" stroke-width="1.2" stroke="#00f" stroke-miterlimit="10" fill="none"/><path d="M210.766 164.582h8v13h-8zm0 0" fill="#fff"/><use xlink:href="#b" x="210.766" y="174.483" fill="#00f"/><path d="M176.95 147.742l-12.825-.375" stroke-width="1.2" stroke="#00f" stroke-miterlimit="10" fill="none"/><path d="M164.125 147.367l-12.82-.38" stroke-width="1.2" stroke="#000" stroke-miterlimit="10" fill="none"/><path d="M176.95 147.742l6.734-10.918" stroke-width="1.2" stroke="#00f" stroke-miterlimit="10" fill="none"/><path d="M183.684 136.824l6.738-10.914" stroke-width="1.2" stroke="#000" stroke-miterlimit="10" fill="none"/><path d="M172.95 141.242h8v13h-8zm0 0" fill="#fff"/><use xlink:href="#b" x="172.949" y="151.144" fill="#00f"/><path d="M153.96 145.56l-6.085-11.294" stroke-width="1.2" stroke="#000" stroke-miterlimit="10" fill="none"/><path d="M147.875 134.266l-6.086-11.293" stroke-width="1.2" stroke="#f00" stroke-miterlimit="10" fill="none"/><path d="M148.645 148.422l-6.083-11.293" stroke-width="1.2" stroke="#000" stroke-miterlimit="10" fill="none"/><path d="M142.563 137.13l-6.086-11.294" stroke-width="1.2" stroke="#f00" stroke-miterlimit="10" fill="none"/><path d="M151.305 146.988l-13.477 21.836" stroke-width="1.2" stroke="#000" stroke-miterlimit="10" fill="none"/><path d="M130.133 117.906h9v13h-9zm0 0" fill="#fff"/><use xlink:href="#a" x="130.133" y="127.808" fill="#f00"/><path d="M137.828 168.824l6.086 11.29" stroke-width="1.2" stroke="#000" stroke-miterlimit="10" fill="none"/><path d="M143.914 180.113L150 191.406" stroke-width="1.2" stroke="#00f" stroke-miterlimit="10" fill="none"/><path d="M144.36 168.22l4.87 9.03" stroke-width="1.2" stroke="#000" stroke-miterlimit="10" fill="none"/><path d="M149.23 177.25l4.868 9.035" stroke-width="1.2" stroke="#00f" stroke-miterlimit="10" fill="none"/><path d="M137.828 168.824l-25.644-.754" stroke-width="1.2" stroke="#000" stroke-miterlimit="10" fill="none"/><path d="M146 184.906h8v13h-8zm0 0" fill="#fff"/><use xlink:href="#b" x="146" y="194.808" fill="#00f"/><path d="M112.184 168.07l-12.168-22.586M105.652 168.676l-9.734-18.07M98.71 189.902l13.474-21.832M100.016 145.484l-25.65-.754M74.367 144.73l-13.472 21.836M78.16 150.086L67.38 167.55M60.895 166.566l12.17 22.582M60.895 166.566l-12.82-.38" stroke-width="1.2" stroke="#000" stroke-miterlimit="10" fill="none"/><path d="M48.074 166.188l-12.824-.375" stroke-width="1.2" stroke="#3cc" stroke-miterlimit="10" fill="none"/><path d="M73.066 189.148l25.645.754M75.81 183.19l20.514.603" stroke-width="1.2" stroke="#000" stroke-miterlimit="10" fill="none"/><path d="M28.25 159.313h7v13h-7zm0 0" fill="#fff"/><use xlink:href="#c" x="28.25" y="169.214" fill="#3cc"/><path d="M190.422 125.91l25.644.75M216.066 126.66l13.477-21.832M229.543 104.828l6.734-10.914" stroke-width="1.2" stroke="#000" stroke-miterlimit="10" fill="none"/><path d="M236.277 93.914l6.74-10.918" stroke-width="1.2" stroke="#00f" stroke-miterlimit="10" fill="none"/><path d="M236.027 105.816l5.387-8.734" stroke-width="1.2" stroke="#000" stroke-miterlimit="10" fill="none"/><path d="M241.414 97.082l5.39-8.73" stroke-width="1.2" stroke="#00f" stroke-miterlimit="10" fill="none"/><path d="M225.75 99.477l5.39-8.735" stroke-width="1.2" stroke="#000" stroke-miterlimit="10" fill="none"/><path d="M231.14 90.742l5.39-8.734" stroke-width="1.2" stroke="#00f" stroke-miterlimit="10" fill="none"/><path d="M239.016 76.496h8v13h-8zm0 0" fill="#fff"/><use xlink:href="#b" x="239.016" y="86.397" fill="#00f"/></g></svg>
